src/images/single-assets/BSW.svg

<svg width="96" height="96" viewBox="0 0 96 96" fill="none" xmlns="http://www.w3.org/2000/svg">
<g clip-path="url(#clip0_1932_1190)">
<path d="M48 95.9996C74.5096 95.9996 96 74.5096 96 48C96 21.4903 74.5096 0 48 0C21.4903 0 0 21.4903 0 48C0 74.5096 21.4903 95.9996 48 95.9996Z" fill="white"/>
<path d="M85.1808 18.0586C81.852 18.7166 78.6776 19.6457 76.0648 20.2263C70.1036 21.5618 64.5292 26.1295 63.31 34.4908C62.226 41.9615 64.742 45.1747 63.6388 53.8647C61.7036 69.0391 47.1488 74.2647 40.3552 77.4391C36.4261 79.2583 26.8841 83.4391 19.5293 86.6327C27.5035 92.5163 37.3357 96.0003 48.0004 96.0003C74.5164 96.0003 96 74.5163 96 48.0003C96 36.6972 92.0904 26.3037 85.5484 18.1166C85.4324 18.0973 85.3164 18.078 85.1808 18.0586Z" fill="url(#paint0_linear_1932_1190)"/>
<path d="M42.6 40.9548C46.2968 32.9612 44.9612 32.9419 47.7676 25.4322C51.3096 15.9096 62.3224 18.6193 65.3612 19.0258C70.374 19.7032 71.6904 17.9226 82.258 16.2193C82.7804 16.1419 83.2836 16.0645 83.7872 16.0064C75 6.19352 62.2256 0 48 0C28.8968 0 12.4064 11.1484 4.68388 27.3096C20.5161 31.2386 37.6064 39.7741 42.6 40.9548ZM32.1096 8.36128C33.5032 8.57416 40.2772 16.9935 41.5548 38.6128C41.5548 38.6128 32.8451 36.5225 30.9677 32.0322C29.4193 28.3354 31.4322 23.4774 32.1096 8.36128ZM85.4708 18.0193C85.4904 18.058 85.5288 18.0774 85.5484 18.1161C85.432 18.0967 85.2968 18.0967 85.1804 18.0774C85.2772 18.0387 85.374 18.0387 85.4708 18.0193ZM0 48C0 44.1676 0.44516 40.4516 1.29677 36.8902C3.03871 38.3418 4.89676 39.9483 6.87096 41.7872C19.3742 53.3804 39.7161 62.5352 47.1288 54.0192C47.1484 54.0384 47.1676 54.0384 47.1676 54.058C45.8128 55.8384 40.6452 61.4708 30.7742 59.7288L15.1742 83.0128C5.84516 74.2644 0 61.8192 0 48Z" fill="url(#paint1_linear_1932_1190)"/>
</g>
<defs>
<linearGradient id="paint0_linear_1932_1190" x1="76.8264" y1="30.6304" x2="65.5024" y2="93.0163" gradientUnits="userSpaceOnUse">
<stop stop-color="#FF496A"/>
<stop offset="1" stop-color="#E42648"/>
</linearGradient>
<linearGradient id="paint1_linear_1932_1190" x1="23.1681" y1="70.7068" x2="48.206" y2="-2.00359e-05" gradientUnits="userSpaceOnUse">
<stop offset="0.00181229" stop-color="#1158F1"/>
<stop offset="1" stop-color="#119BED"/>
</linearGradient>
<clipPath id="clip0_1932_1190">
<rect width="96" height="96" fill="white"/>
</clipPath>
</defs>
</svg>

<svg xmlns="http://www.w3.org/2000/svg" width="96" height="96" fill="none"><g clip-path="url(#a)"><path fill="#fff" d="M48 96c26.51 0 48-21.49 48-48S74.51 0 48 0 0 21.49 0 48s21.49 48 48 48"/><path fill="url(#b)" d="M85.18 18.059c-3.328.658-6.502 1.587-9.115 2.167-5.961 1.336-11.536 5.904-12.755 14.265-1.084 7.47 1.432 10.684.329 19.374-1.935 15.174-16.49 20.4-23.284 23.574-3.929 1.82-13.47 6-20.826 9.194C27.503 92.516 37.336 96 48 96c26.516 0 48-21.484 48-48 0-11.303-3.91-21.696-10.452-29.883-.116-.02-.232-.039-.367-.058"/><path fill="url(#c)" d="M42.6 40.955c3.697-7.994 2.361-8.013 5.168-15.523 3.542-9.522 14.554-6.813 17.593-6.406 5.013.677 6.33-1.103 16.897-2.807.522-.077 1.026-.155 1.53-.213C75 6.194 62.225 0 48 0 28.897 0 12.406 11.148 4.684 27.31 20.516 31.239 37.606 39.774 42.6 40.955M32.11 8.36c1.393.213 8.167 8.633 9.445 30.252 0 0-8.71-2.09-10.587-6.58-1.549-3.698.464-8.556 1.142-23.672m53.36 9.658c.02.039.059.058.078.097-.116-.02-.251-.02-.368-.039.097-.038.194-.038.29-.058M0 48c0-3.832.445-7.548 1.297-11.11 1.742 1.452 3.6 3.058 5.574 4.897C19.374 53.38 39.716 62.535 47.129 54.02c.02.02.039.02.039.039-1.355 1.78-6.523 7.413-16.394 5.67l-15.6 23.285C5.845 74.264 0 61.819 0 48"/></g><defs><linearGradient id="b" x1="76.826" x2="65.502" y1="30.63" y2="93.016" gradientUnits="userSpaceOnUse"><stop stop-color="#FF496A"/><stop offset="1" stop-color="#E42648"/></linearGradient><linearGradient id="c" x1="23.168" x2="48.206" y1="70.707" y2="0" gradientUnits="userSpaceOnUse"><stop offset=".002" stop-color="#1158F1"/><stop offset="1" stop-color="#119BED"/></linearGradient><clipPath id="a"><path fill="#fff" d="M0 0h96v96H0z"/></clipPath></defs></svg>
